packages/icons/svg/Fill/fire.svg

<svg width="24" height="24" viewBox="0 0 24 24" fill="none" xmlns="http://www.w3.org/2000/svg">
<g id="Icon/Fill/fire">
<path id="Mask" fill-rule="evenodd" clip-rule="evenodd" d="M13.959 18.0234C13.292 18.6604 12.409 19.0064 11.471 19.0004H11.47C10.533 18.9924 9.656 18.6314 9 17.9844C7.651 16.6554 7.669 14.5074 9.041 13.1984L11.204 11.1304C11.293 11.0454 11.413 10.9994 11.539 11.0004C11.664 11.0014 11.784 11.0494 11.871 11.1354L14 13.2364C15.349 14.5664 15.331 16.7134 13.959 18.0234ZM16.806 7.9864L12.213 3.2954C11.831 2.9044 11.194 2.9044 10.798 3.2804C10.584 3.4844 10.47 3.7734 10.489 4.0684C10.498 4.2084 10.498 4.3464 10.498 4.4944C10.498 7.0514 9.855 8.5634 9.5 8.9374C9.349 8.7714 9.075 8.3354 8.844 7.4444C8.754 7.0964 8.484 6.8234 8.137 6.7294C7.788 6.6374 7.418 6.7364 7.165 6.9914L6.181 7.9844C3.27 10.9514 3.274 15.7854 6.189 18.7564C7.602 20.2024 9.485 20.9984 11.492 21.0004H11.5C13.509 21.0004 15.396 20.2044 16.815 18.7574C19.732 15.7854 19.727 10.9514 16.806 7.9864Z" fill="#000000"/>
</g>
</svg>

<svg fill="none" height="24" viewBox="0 0 24 24" width="24" xmlns="http://www.w3.org/2000/svg"><path clip-rule="evenodd" d="m13.959 18.0235c-.667.637-1.55.983-2.488.977h-.001c-.937-.008-1.81398-.369-2.46998-1.016-1.349-1.329-1.331-3.477.041-4.786l2.16298-2.068c.089-.085.209-.131.335-.13.125.001.245.049.332.135l2.129 2.101c1.349 1.33 1.331 3.477-.041 4.787m2.847-10.0371-4.593-4.691c-.382-.391-1.019-.391-1.415-.015-.214.204-.328.493-.309.788.009.14.009.278.009.426 0 2.557-.643 4.069-.998 4.443-.151-.166-.425-.602-.656-1.493-.09-.348-.36-.621-.707-.715-.349-.092-.719.007-.972.262l-.984.993c-2.911 2.967-2.907 7.801.008 10.772 1.413 1.446 3.296 2.242 5.303 2.244h.008c2.009 0 3.896-.796 5.315-2.243 2.917-2.972 2.912-7.806-.009-10.771" fill="#6b7280" fill-rule="evenodd"/></svg>
